dist/images/atendit-logo.svg

<svg width="300" height="71" viewBox="0 0 300 71" fill="none" xmlns="http://www.w3.org/2000/svg">
<path d="M41.7577 49.2693V33.0492C41.7577 28.3285 40.1312 24.6292 36.9279 22.0507C33.7096 19.4622 28.9244 18.1481 22.7111 18.1481C16.5523 18.1481 11.5638 19.368 7.89435 21.773C4.25462 24.1631 2.40996 27.5995 2.40996 31.988C2.40996 32.836 2.42979 33.4657 2.47442 33.8624H10.2101V32.955C10.2101 30.6392 11.1324 28.6607 12.9473 27.0789C14.7523 25.502 17.7772 24.7036 21.9376 24.7036C26.3558 24.7036 29.4649 25.5218 31.1757 27.1334C32.8915 28.75 33.7642 31.1004 33.7642 34.1153V39.9568H33.5163C22.6665 39.9568 14.2614 41.1667 8.52907 43.5568C2.87112 45.9122 0 50.3305 0 56.6876C0 61.9736 1.68102 65.6679 4.99347 67.6663C7.9836 69.4713 11.4051 70.4779 15.1639 70.6763C26.5046 70.0415 36.3378 61.6067 41.7577 49.2693ZM8.3803 56.2017C8.3803 52.433 10.5324 49.8396 14.7771 48.4908C18.9325 47.1717 25.2401 46.5023 33.5212 46.5023H33.7692V50.4148C33.7692 53.3454 33.0402 55.8744 31.6022 57.9372C30.1641 59.9901 28.2848 61.5621 26.0037 62.6034C23.7326 63.6398 21.2929 64.1704 18.7639 64.1704C15.3821 64.1704 12.7837 63.5555 11.0481 62.3406C9.27288 61.1059 8.3803 59.043 8.3803 56.2017Z" fill="white"/>
<path d="M281.157 69.9226V26.8806H271.041V20.335H281.157V2.58264H288.595V20.335H300V26.8806H288.595V69.9226H281.157Z" fill="white"/>
<path d="M263.206 2.2851V12.0043H255.173V2.2851H263.206ZM255.47 20.335H262.909V69.9226H255.47V20.335Z" fill="white"/>
<path d="M242.582 45.1684V0.499939H235.144V28.3682C231.113 22.4821 225.361 19.5416 217.888 19.5416C210.415 19.5416 204.435 22.021 199.937 26.9797C195.573 31.874 193.392 37.9237 193.392 45.1288C193.392 52.3339 195.573 58.3835 199.937 63.2778C203.944 67.701 209.012 70.1457 215.121 70.6218C227.364 69.5755 237.763 59.4249 242.582 45.1684ZM200.83 45.1288C200.83 39.7733 202.382 35.3451 205.491 31.8393C208.798 28.1351 213.093 26.2855 218.384 26.2855C223.739 26.2855 227.969 28.1351 231.078 31.8393C234.053 35.3451 235.541 39.7733 235.541 45.1288C235.541 50.4842 234.053 54.9124 231.078 58.4183C227.969 62.1224 223.739 63.9721 218.384 63.9721C213.093 63.9721 208.798 62.1224 205.491 58.4183C202.382 54.9124 200.83 50.4842 200.83 45.1288Z" fill="white"/>
<path d="M177.92 25.0954C176.135 23.2458 174.053 21.8574 171.672 20.9301C169.61 20.1267 167.195 19.6755 164.438 19.5664C153.781 21.8474 144.85 31.0856 140.333 43.6957V69.9226H147.771V41.3602C147.771 36.932 149.224 33.2923 152.135 30.4509C155.046 27.674 158.581 26.2855 162.747 26.2855C166.848 26.2855 170.185 27.6393 172.763 30.3517C175.342 33.0641 176.631 36.6989 176.631 41.261V69.9226H184.069V41.0626C184.069 34.4526 182.016 29.1269 177.92 25.0954Z" fill="white"/>
<path d="M107.209 63.972C113.888 63.972 118.678 61.1951 121.589 55.6413H129.721C128.001 60.1389 125.273 63.7737 121.539 66.5506C117.805 69.3275 112.995 70.716 107.109 70.716C99.6365 70.716 93.5571 68.2366 88.8612 63.2778C84.2991 58.4529 82.0181 52.4033 82.0181 45.1288C82.0181 37.7898 84.1999 31.7401 88.5636 26.9797C93.1902 22.0209 99.2101 19.5416 106.614 19.5416C114.017 19.5416 120.037 22.0209 124.663 26.9797C129.027 31.7401 131.209 37.7898 131.209 45.1288V48.104H89.6546C90.1851 52.6661 92 56.4347 95.1092 59.41C98.2828 62.4497 102.314 63.972 107.209 63.972ZM106.614 26.2855C102.051 26.2855 98.2183 27.7086 95.1092 30.55C92.1984 33.2625 90.4132 36.798 89.7537 41.1618H123.473C122.814 36.798 121.029 33.2625 118.118 30.55C115.009 27.7086 111.176 26.2855 106.614 26.2855Z" fill="white"/>
<path d="M59.1081 69.9226V26.8806H48.9922V20.335H59.1081V2.58264H66.5462V20.335H77.9513V26.8806H66.5462V69.9226H59.1081Z" fill="white"/>
</svg>

<?xml version="1.0" encoding="utf-8"?>
<!-- Generator: Adobe Illustrator 24.1.0, SVG Export Plug-In . SVG Version: 6.00 Build 0)  -->
<svg version="1.1" id="mark" xmlns="http://www.w3.org/2000/svg" xmlns:xlink="http://www.w3.org/1999/xlink" x="0px" y="0px"
	 viewBox="0 0 300 71" style="enable-background:new 0 0 300 71;" xml:space="preserve">
<style type="text/css">
	.st0{fill:#FFFFFF;}
</style>
<path id="t2" class="st0" d="M281.2,69.9v-43H271v-6.5h10.1V2.6h7.4v17.8H300v6.5h-11.4v43H281.2z"/>
<path id="i" class="st0" d="M263.2,2.3V12h-8V2.3H263.2z M255.5,20.3h7.4v49.6h-7.4V20.3z"/>
<path id="d" class="st0" d="M242.6,45.2V0.5h-7.4v27.9c-4-5.9-9.8-8.8-17.3-8.8c-7.5,0-13.5,2.5-18,7.4c-4.4,4.9-6.5,10.9-6.5,18.1
	s2.2,13.3,6.5,18.1c4,4.4,9.1,6.9,15.2,7.3C227.4,69.6,237.8,59.4,242.6,45.2z M200.8,45.1c0-5.4,1.6-9.8,4.7-13.3
	c3.3-3.7,7.6-5.6,12.9-5.6c5.4,0,9.6,1.8,12.7,5.6c3,3.5,4.5,7.9,4.5,13.3c0,5.4-1.5,9.8-4.5,13.3c-3.1,3.7-7.3,5.6-12.7,5.6
	c-5.3,0-9.6-1.8-12.9-5.6C202.4,54.9,200.8,50.5,200.8,45.1z"/>
<path id="n" class="st0" d="M177.9,25.1c-1.8-1.8-3.9-3.2-6.2-4.2c-2.1-0.8-4.5-1.3-7.2-1.4c-10.7,2.3-19.6,11.5-24.1,24.1v26.2h7.4
	V41.4c0-4.4,1.5-8.1,4.4-10.9c2.9-2.8,6.4-4.2,10.6-4.2c4.1,0,7.4,1.4,10,4.1c2.6,2.7,3.9,6.3,3.9,10.9v28.7h7.4V41.1
	C184.1,34.5,182,29.1,177.9,25.1z"/>
<path id="e" class="st0" d="M107.2,64c6.7,0,11.5-2.8,14.4-8.3h8.1c-1.7,4.5-4.4,8.1-8.2,10.9c-3.7,2.8-8.5,4.2-14.4,4.2
	c-7.5,0-13.6-2.5-18.2-7.4C84.3,58.5,82,52.4,82,45.1c0-7.3,2.2-13.4,6.5-18.1c4.6-5,10.6-7.4,18.1-7.4c7.4,0,13.4,2.5,18,7.4
	c4.4,4.8,6.5,10.8,6.5,18.1v3H89.7c0.5,4.6,2.3,8.3,5.5,11.3C98.3,62.4,102.3,64,107.2,64z M106.6,26.3c-4.6,0-8.4,1.4-11.5,4.3
	c-2.9,2.7-4.7,6.2-5.4,10.6h33.7c-0.7-4.4-2.4-7.9-5.4-10.6C115,27.7,111.2,26.3,106.6,26.3z"/>
<path id="t1" class="st0" d="M59.1,69.9v-43H49v-6.5h10.1V2.6h7.4v17.8H78v6.5H66.5v43H59.1z"/>
<path id="a" class="st0" d="M41.8,49.3V33c0-4.7-1.6-8.4-4.8-11c-3.2-2.6-8-3.9-14.2-3.9c-6.2,0-11.1,1.2-14.8,3.6
	C4.3,24.2,2.4,27.6,2.4,32c0,0.8,0,1.5,0.1,1.9h7.7V33c0-2.3,0.9-4.3,2.7-5.9c1.8-1.6,4.8-2.4,9-2.4c4.4,0,7.5,0.8,9.2,2.4
	c1.7,1.6,2.6,4,2.6,7V40h-0.2c-10.8,0-19.3,1.2-25,3.6C2.9,45.9,0,50.3,0,56.7c0,5.3,1.7,9,5,11c3,1.8,6.4,2.8,10.2,3
	C26.5,70,36.3,61.6,41.8,49.3z M8.4,56.2c0-3.8,2.2-6.4,6.4-7.7c4.2-1.3,10.5-2,18.7-2h0.2v3.9c0,2.9-0.7,5.5-2.2,7.5
	c-1.4,2.1-3.3,3.6-5.6,4.7c-2.3,1-4.7,1.6-7.2,1.6c-3.4,0-6-0.6-7.7-1.8C9.3,61.1,8.4,59,8.4,56.2z"/>
</svg>
